common/resources/fonts/svg/date.svg

<?xml version="1.0" encoding="UTF-8" standalone="no"?>
<svg width="1024px" height="1024px" viewBox="0 0 1024 1024" version="1.1" xmlns="http://www.w3.org/2000/svg" xmlns:xlink="http://www.w3.org/1999/xlink">
    <!-- Generator: Sketch 3.7.1 (28215) - http://www.bohemiancoding.com/sketch -->
    <title>date</title>
    <desc>Created with Sketch.</desc>
    <defs></defs>
    <g id="Page-1" stroke="none" stroke-width="1" fill="none" fill-rule="evenodd">
        <g id="date" fill="#000000">
            <path d="M969.047306,144.464779 L969.047306,960 L54,960 L54,144.464779 L220.004157,141.324655 L220.004157,78.3931912 C220.004157,78.3931912 243.16705,65 265.99898,65 C288.830912,65 311.649473,78.3931912 311.649473,78.3931912 L311.649473,141.324655 L711.397836,141.324655 L711.397836,78.3931912 C711.397836,78.3931912 737.745762,65 759.572572,65 C781.399385,65 803.043149,78.3931912 803.043149,78.3931912 L803.043149,141.324655 L969.047306,144.464779 L969.047306,144.464779 Z M106.289621,193.926227 L103.871539,309.994205 L913.803127,309.994205 L914.984051,193.926227 L803.043149,191.51506 L803.043149,213.098932 L711.397836,213.098932 L711.397836,191.51506 L311.649473,191.51506 L311.649473,213.098932 L220.004157,213.098932 L220.004157,191.51506 L106.289621,193.926227 L106.289621,193.926227 Z M336.152361,599.754403 L336.152361,376.820226 L107.135647,376.820226 L107.135647,599.754403 L336.152361,599.754403 L336.152361,599.754403 Z M397.015296,376.820226 L397.015296,599.754403 L626.032011,599.754403 L626.032011,376.820226 L397.015296,376.820226 L397.015296,376.820226 Z M681.522304,376.820226 L681.522304,599.754403 L910.539019,599.754403 L910.539019,376.820226 L681.522304,376.820226 L681.522304,376.820226 Z M336.152361,905.208504 L336.152361,654.407556 L107.135647,654.407556 L107.135647,877.341733 L135.762736,905.208504 L336.152361,905.208504 L336.152361,905.208504 Z M397.015296,905.208504 L626.032011,905.208504 L626.032011,654.407556 L397.015296,654.407556 L397.015296,905.208504 L397.015296,905.208504 Z M881.91193,899.851227 L910.539019,871.984457 L910.539019,649.05028 L681.522304,649.05028 L681.522304,899.851227 L881.91193,899.851227 L881.91193,899.851227 Z" id="calendar"></path>
        </g>
    </g>
</svg>

<svg width="1024" height="1024" viewBox="0 0 1024 1024">
    <path d="M969.047 144.465V960H54V144.465l166.004-3.14V78.393S243.167 65 266 65c22.832 0 45.65 13.393 45.65 13.393v62.932h399.749V78.393S737.746 65 759.573 65c21.826 0 43.47 13.393 43.47 13.393v62.932l166.004 3.14zM106.29 193.926l-2.418 116.068h809.931l1.181-116.068-111.94-2.41v21.583h-91.646v-21.584H311.649V213.1h-91.645v-21.584l-113.714 2.411zm229.862 405.828V376.82H107.136v222.934h229.016zm60.863-222.934v222.934h229.017V376.82H397.015zm284.507 0v222.934H910.54V376.82H681.522zm-345.37 528.39V654.408H107.136v222.934l28.627 27.867h200.39zm60.863 0h229.017V654.408H397.015v250.8zm484.897-5.358l28.627-27.867V649.05H681.522v250.801h200.39z" fill-rule="evenodd"/>
</svg>
